X: 072
M: 6/8
L: 1/8
K: Gm
!segno!GAB |\
dcB Adc | B2A GAB |\
dcB AG^F | HG3 |]
!+!B2A ABc | !+!B2A cBA |\
!+!B2A ABc | !+!B2A Bcd |\

